X: 1
T: The Golden Keyboard
R: reel
M: 4/4
L: 1/8
%Z: Modified by Megan Ward
K: Edor
BGEF GFGA | B/B/B gB fBed | BGEF GBAG | F/E/D AD BDAD |
EDEF GFGA | B2 gB fBeB | (3ded ce dBAF | DFAF GE E2 :|
|:Be ~e2 Be ~e2 | Beef edBc | dA ~A2 eAce | dcde dBAF |
EDEF GFGA | B2 gB fBeB | (3ded ce dBAF | DFAF GE E2 :|
